/* XPM */
static const char * innova80_xpm[] = {
"80 80 49 1",
"  c None",
"a c #00FFFF",
"b c #00AAD5",
"c c #058CCF",
"d c #007FFD",
"e c #007FBF",
"f c #007F7F",
"g c #077CC1",
"h c #067BC0",
"i c #067ABE",
"j c #0679BD",
"k c #0678BB",
"l c #0677BA",
"m c #0676B8",
"n c #0675B7",
"o c #0774B6",
"p c #0774B5",
"q c #0674B6",
"r c #0674B5",
"s c #0774B4",
"t c #0674B4",
"u c #0774B3",
"v c #0773B5",
"w c #0773B4",
"x c #0673B6",
"y c #0673B5",
"z c #0673B4",
"A c #0673B3",
"B c #0772B3",
"C c #0672B4",
"D c #0672B3",
"E c #0672B2",
"F c #0671B1",
"G c #066FAE",
"H c #066CAB",
"I c #066BA9",
"J c #0769A7",
"K c #056BAA",
"L c #0667A5",
"M c #06649F",
"N c #0055FF",
"O c #0055AA",
"P c #07609D",
"Q c #065D97",
"R c #075790",
"S c #064D80",
"T c #013664",
"U c #0000D9",
"V c #000000",
"                                                                                ",
"                                                                                ",
"                                                                                ",
"                                                                                ",
"                                                                                ",
"                                    IHHHHHIJ                                    ",
"                               GGEmjiijiiiiijoFGH                               ",
"                            GBggjnzvstzzzzztssmjgiFG                            ",
"                         HzhiowwzztwpssrrprpsptzzzmhkB                          ",
"                       HyglyzwprttyvprpwtssrtttprrzztkhD                        ",
"                      DgmzwryrpsttwssstwpvwrsssttztswCAlhF                      ",
"                    GikwwpprrspsstswpswwsssssssswzsstzzDDklH                    ",
"                   CgzArpsspysssswzAsswwsswsswAsszzszzzzwEzgF                   ",
"                  nkDvppppswpwsswwzwswwwzwwwwsswstwpzzzwwwwEkq                  ",
"                LioBppppspvrpsspwvzpptpwyvwtsswwwwvswzswwzzyDqj                 ",
"               JgqwpsppvswvppwppwwzwwsswsswssswszsssAszsszzzzErhJ               ",
"              JgnwppwpsvsswwvwwswswwspssssswzsswwsswwwwwwwzzzyEnkJ              ",
"              gnwpspwwwvpswwwwsswwwwssswpssssswwwwsswwzswwzzzAlG                ",
"             lnzpwsswwsvwwsvzwswAszvwwszpswsswwwzzzvtzttwzzzyzj                 ",
"            ClCqpwwppsprwwwyyzswzwstssstyswsssztzzwwwzzzzAzzzjH                 ",
"           HhApzsvsvsvppsssvvssssssssswpswsssswzwzsswwtwwzzzzj      P           ",
"           gzpprvswpwsspsswwwsspsprwwwtwssstssswzAsswwszszzzkH                  ",
"          Flysprrvsszvpwssstssstwsyssswwswtsstswzwwsswszzzzzi        C          ",
"         LgzrrsrpwsswswpwwwppwssssvwsssspwssstuswzwwwwzzzzDkH       IcL         ",
"         vnzrppvzwpvwppsswwpppspsswssssvrswsswswwztsAwzwwzDh        omF         ",
"        JgzryssyvwspvwtvvwwypsppssswssprssttuzwwwzttwzzzzClG       KgAgJ        ",
"        FmzprswvpvppzwpppwwrpzzpsrrwpspprwAywwszyzwzwzzwwDg        qqClG        ",
"        gwpppsprpwsrwsssyspzCjgirArspspztigitAstytzwwtwwwmG       JgArzi        ",
"       GivrppspspssswwsprssrjGJHrmApspzmnHIHnmAssttwtwwtAgL       ooAtAhK       ",
"       wnspppvvtpwsswwtrztyk     ymzpwmr     ynwwzzwwtzAmG       IgzprznG       ",
"       gzprrsyprywwvyzrryChK      iyrzh       hzyztzwzyChL       rnyzywzi       ",
"      Hgyprprwryyrprzyrryxo       FnykG       HjyytsvzznF       JgzrrrpzgJ      ",
"      GjwrrprrrrrrpvzrrrzhI       myzh         lqrrtyzzhL       DmzrrrrCjH      ",
"      Eozppspssrtswwzzryyn       KhAkG         Lhztzzzrz       JgzryzzszmG      ",
"      lzpprttzttswwzzttziI       qrDg           ynzzzDhJ       Fmyvyzzttzr      ",
"      irrsrrspzrpzwztzryl       IhAlG           LgDzzyp        gzrzzzzszrk      ",
"     IiyywrsswrzrwwyztziH       qtDh             GlCziI       GkzstvwwwtzjJ     ",
"     Iiwrsttyztzrwzztzrk       IgAmG              hCCl        gzsttpzzstziI     ",
"     HjztstwzzwrsvwwzzjH       yrzgL              HkkH       GkwrrpvwzzzziI     ",
"     Hjzrsyyzwwrzzwwzzk       JgznF       H        nj        izsvwwwwywzzjH     ",
"     IjzrsyzzwvyzzzwzjH       EnzhL       cL       JH       HiypyzztwzzzziK     ",
"     Hjzrrryyvvrrzzyyi       LgznD       Gkn                krprrpyywzryziJ     ",
"     IiyrryryvrrryyCkH       FmzhI       iDiH              KhyrryrrzzrprziJ     ",
"     Lizzryryzyryzzzh        gDqq       Hjyzh              nyyrtrptvyrztzj      ",
"      kryrrzzzzzzzDkG       GlzhK       kzrymE            Ihztrtzvpyyzvtzm      ",
"      rqrpryzryyrrzh        gzyl       HhzrrAgJ           yqyrtryyvszyrzqD      ",
"      GlzrrytsyzzDlG       GjziH       oqssttql          JgzrtsssrwwwytAlF      ",
"      HhyrrprtrrtDgL       hzzj       HgzpsttzjH         DnttttvstyptzttiH      ",
"      JgzprttsyrznF       HjzkG       CnzsprstAg        LgArtttwvpsrtttAgL      ",
"       jypsrrwsryiH       jrzgK      LgzrspprrzmC       FmwrywtvztwtAzzzk       ",
"       GlzrrzzwyCjH      HhzzgJ      FmzzttrsrrzhH     JhzvyyzzwzrvyszAlG       ",
"       Igzrtrytrzym      kzyznp     JhzrytzrtryrCjH   IlnttrrzzpvsvvzpCgL       ",
"        myrrrprrrzmy   HmosrrzkE   HjyrrrrrytrrrtyhFGFhtsprrrstsrtpztvvm        ",
"        HiyptrrrprwmhzqhqzrrrrAliDmhvprrrwssrrtrrrwnkmzpprprtrtwrtppsyjI        ",
"         iysrrprrzpwzrpzspwrrspypqyzpprprpwssrwpstpswutrpryypvpssppsryj         ",
"         HjwrpprprppvrpppppppvpppzrppppspswsspsppsppsstpppppswspppppDjH         ",
"          jrvytrryvpssrppwppvsspprrspprrpswsssspprpppspswwptwtzpspzszj          ",
"          IgAryypwwrztrrrsrryprptprppttrpsttttsrrtpttrtrtzrrrtrttyzChI          ",
"           AlzrrpsspsrprpsssssptsspssspspswsspssttspttttstrrswstrtAmA           ",
"            gttspwwptsppssrppstptrpsspvsswwsstsptzsptttspssrtwyttrAg            ",
"            JgEotzvstwrywzpprtsptttwsrzzzwsstzwzwztsttpsvttztwtttDhI            ",
"             GiCrwttsspppsprpsspsrwwsvswrstssssstzsswrrpswpztsspzkG             ",
"              wlDystsssprswrpsssswzsvwwwvsssswwwwztswztsywtttztBmt              ",
"               nlDpszrtyzzztrtssttzzszzzzswztzwtyztsttttwzAztzDno               ",
"                olArzyrrrytryrtpztyzryttrtztzzzzzztrttrttzzzzAmv                ",
"                 AjDyzzrttsrrrrrttyyrrzyzttttzsttzttzttyttzzDkz                 ",
"                  DhDCrrztwrrsttzzrzzpzzzzzztwtszztzzzzzwtADhE                  ",
"                   GgqzytyzrrwpryyzzrryzytzzztstyzzrzzzzzDzgH                   ",
"                     ziyCzrytrrtzzzzrtzzryzzzztzttttAztDCjoL                    ",
"                      FjkzzyryrrttytyztrrtzzttttttttzDAliG                      ",
"                        FiizCCttzzyzztyyztztttttztAACkhF                        ",
"                          FqgktzzAtzztztzztztzADDzmhlF                          ",
"                            IFmghlqzyzztyzzzAzmjgiFH                            ",
"                                GFEmjiiiiiijlAFGJ                               ",
"                                     JJIHJI                                     ",
"                                                                                ",
"                                                                                ",
"                                                                                ",
"                                                                                ",
"                                                                                "
};
