/* XPM */
static const char * innova32_xpm[] = {
"32 32 49 1",
"  c None",
"a c #01D9E6",
"b c #027FE6",
"c c #007F7F",
"d c #077DC3",
"e c #077CC2",
"f c #077CC1",
"g c #077BC0",
"h c #077ABF",
"i c #0779BD",
"j c #0679BD",
"k c #0778BB",
"l c #0677BA",
"m c #0776B8",
"n c #0676B9",
"o c #0775B7",
"p c #0774B6",
"q c #0774B5",
"r c #0774B4",
"s c #0675B7",
"t c #0674B6",
"u c #0674B5",
"v c #0674B4",
"w c #0574B6",
"x c #0773B5",
"y c #0773B4",
"z c #0673B5",
"A c #0673B4",
"B c #0773B3",
"C c #0673B3",
"D c #0772B3",
"E c #0672B4",
"F c #0672B3",
"G c #0672B2",
"H c #0671B1",
"I c #0670B0",
"J c #0571B1",
"K c #066FAE",
"L c #066EAC",
"M c #076CAA",
"N c #046EAD",
"O c #056BA9",
"P c #0668AB",
"Q c #0765A4",
"R c #05619B",
"S c #0056A3",
"T c #004279",
"U c #0000FF",
"V c #000000",
"                                ",
"                                ",
"             DDGFGB             ",
"          oshjlmmkijtw          ",
"        EigprFBBByBAogkF        ",
"       seyyrryyyyyyyyCDew       ",
"      niBqyyryrrrryyyyyFgH      ",
"     uiDryyyyyrrrryAyAAEl       ",
"    IeFqrqyyrrrrrrryyyAjI       ",
"    gAxyrqyqBBrrBBryyyAi   K    ",
"   HgAqqrqBiemyqffyAyAkI   dJ   ",
"   xpyqrrAkIKAmoKKozAAh   KfE   ",
"   hzuuxAlE   dI  KfFkJ   mAi   ",
"  IiuuuyCe   Ki    Ash   IgAiI  ",
"  GlAruynF   dK     dJ   ouFlH  ",
"  GnAAzFf   Ng      FK  IfBBnJ  ",
"  HnAzzmF   eN  KN      usACnJ  ",
"  JlAzEeN  Kd   Gg     NeAuAkH  ",
"  IhzAsA   jI   glH    CnCyxjI  ",
"   izAeK  Kd   JkCe    eCyvFi   ",
"   EsAhJ  th   hAAss  snAyAoF   ",
"   HeAvlFEmtrFpoyvAokkmAqqyfI   ",
"    mtzykoyqqkqrqrqyyABqvytm    ",
"    LdCqAyqqrArurrrvvvruuCdL    ",
"     HgCqqqqryyyrrryrrruCgG     ",
"      tgCAvvrAAAvAAAvvvChu      ",
"       tdzCAvAvzAAvAACAez       ",
"        HngsAAAAAAAFsglG        ",
"          ttijlnnljjtA          ",
"             FGGHGJ             ",
"                                ",
"                                "
};
